X:3621
T:Cuckoos Nest. JC.225
M:C|
L:1/8
Q:140
S:John Clare,Poet,Helpstone (1793-1864)
R:Air
O:England225
A:Northamptonshire
N:
Z:P Headford
K:F
(cB)|A2GF a2gf|ecAc d2cB|AGAF E2GB|e2B2 c2cB|!
A2GF a2gf|ecAc d2dB|AFAF EFGB|A2F2 F2:|!
|:c2|f2f2 fagf|e2c2 c2cd|e2e2 egfe|d2B2 B2cB|!
AGAF fagf|ecAc d2cB|A2GF EFGB|A2F2 F2:|]
W:Song text exists. See Deacon.


